svgs/light/square-4.svg

<svg xmlns="http://www.w3.org/2000/svg" viewBox="0 0 448 512"><!--! Font Awesome Pro 6.1.1 by @fontawesome - https://fontawesome.com License - https://fontawesome.com/license (Commercial License) Copyright 2022 Fonticons, Inc. --><path d="M384 32H64C28.65 32 0 60.65 0 96v320c0 35.35 28.65 64 64 64h320c35.35 0 64-28.65 64-64V96C448 60.65 419.3 32 384 32zM416 416c0 17.64-14.36 32-32 32H64c-17.64 0-32-14.36-32-32V96c0-17.64 14.36-32 32-32h320c17.64 0 32 14.36 32 32V416zM304 288H288V208C288 199.2 280.8 192 272 192S256 199.2 256 208V288H151.6l55.23-138.1c3.281-8.188-.7187-17.5-8.922-20.78C189.8 125.8 180.4 129.8 177.1 138.1l-64 160C111.2 303 111.8 308.6 114.8 312.1C117.7 317.4 122.7 320 128 320h128v48c0 8.844 7.156 16 16 16s16-7.156 16-16V320h16c8.844 0 16-7.156 16-16S312.8 288 304 288z"/></svg>

<svg xmlns="http://www.w3.org/2000/svg" viewBox="0 0 448 512"><!--! Font Awesome Pro 6.5.1 by @fontawesome - https://fontawesome.com License - https://fontawesome.com/license (Commercial License) Copyright 2023 Fonticons, Inc. --><path d="M384 64c17.7 0 32 14.3 32 32V416c0 17.7-14.3 32-32 32H64c-17.7 0-32-14.3-32-32V96c0-17.7 14.3-32 32-32H384zM64 32C28.7 32 0 60.7 0 96V416c0 35.3 28.7 64 64 64H384c35.3 0 64-28.7 64-64V96c0-35.3-28.7-64-64-64H64zm133.9 97.1c-8.2-3.3-17.5 .7-20.8 8.9l-64 160c-2 4.9-1.4 10.5 1.6 14.9s7.9 7 13.2 7H256v48c0 8.8 7.2 16 16 16s16-7.2 16-16V320h16c8.8 0 16-7.2 16-16s-7.2-16-16-16H288V208c0-8.8-7.2-16-16-16s-16 7.2-16 16v80H151.6l55.2-138.1c3.3-8.2-.7-17.5-8.9-20.8z"/></svg>
